!!!ONB: MCCC : IJH0446_03 : Extracted Monophonic Melody
!!!COM: Haydn, Joseph
!!!OPR: String Quartet in E-flat major
!!!OMV: 3
!!!SCT: Hob.III:38 ; Op.33 No.2
!!!ODT: 1781///
**kern
*thru
*k[b-e-]
*B-:
*clefG
*M3/4
=8
4ff
4gg
8.ff
16bb-
=9
2ee-
4dd
=10
4cc
4ee-
8.dd
16cc
=11
2cc
4r
=12
4b-
4cc
8.ee-
16gg
=13
2a
8.b-
16bb-
=14
8gg
16ff
16ee-
8dd
8ff
8a
8cc
=15
4b-
2r
=16
8gg
8r
8ff#
4.r
=17
8ccc
8r
8bb-
4.r
=18
4.bb-
8aa
8gg
8ff
=19
4ff
4ee
4r
=20
8ff
4ff
4ff
16ff
16ee
=21
8ee
8ee
8r
8ee
8r
8ee
=22
8bb-
4bb-
4bb-
16bb-
16aa
=23
8aa
8aa
8r
8aa
8r
8aa
=24
8ddd
8.ddd
16ccc#
16ddd
16aa
16bb-
16gg
16aa
16bb-
=25
16ccc
16bb
16ccc
16bb
8ccc
6..r
48r
16bb-
=26
16bb-
16aa
16bb-
16gg
4ff
8.gg
16ff
=27
8ddd
8.ddd
16ccc#
16ddd
16aa
16bb-
16gg
16aa
16bb-
=28
16ccc
16bb
16ccc
16bb
16ccc
16ccc
16ddd
16eee
4fff[
=29
16fff]
16ddd
16ccc
16bb-
8aa
8ccc
8ee
8gg
=30
16ff
16ee
16ff
16ee
16ff
16ee
16ff
16ee
16ff
16ee-
16dd
16cc
=31
16b-
16a
16b-
16a
16b-
16a
16b-
16a
16b-
16a
16b-
16a
=32
16b-
16a
16b-
16dd
16cc
16b-
16cc
16a
16f
16b-
16dd
16ff
=33
6..ff[
48ff]
16ee-
16cc
16a
8.b-
16dd
=34
16ff
16ee
16ff
16ee
16ff
16ee
16ff
16ee
16ff
16ff#
16gg
16aa
=35
16bb-
16aa
16bb-
16aa-
16gg
16ff#
16gg
16ff
16ee-
16dd
16ee-
16cc
=36
16cc
16b
16cc
16b
16cc
16ee-
16dd
16cc
16b-
16ff
16ff
16ff
=37
8ee-
16dd
16cc
8b-
8dd
8cc
8a
=38
4b-
2r
=39
8ee-
4ee-
4ee-
16ee-
16dd
=40
8dd
8dd
8r
8dd
8r
8dd
=41
8aa-
4aa-
4aa-
16aa-
16gg
=42
8gg
8gg
8r
8gg
8r
8gg
=43
8ccc
8.ccc
16bb
16ccc
16bb
16ccc
16eee-
16ddd
16ccc
=44
4ccc
16bb
16ccc
16ddd
16eee-
8fff
16r
16bb
=45
8ccc
8.ccc
16bb
16ccc
16bb
16ccc
16eee-
16ddd
16ccc
=46
16bb-
16aa
16bb-
16aa
16bb-
16ccc
16ddd
16eee-
8fff
16r
16ddd
=47
16ddd
16ccc
8.ccc
16ddd-
8.ddd-
16ddd-
16ccc
16bb-
=48
16bb-
16aa
16gg
16ff
4ff
16ee
16ddd
16ccc
16ee
=49
8ff
16ee
16ff
4ff
16ee
16ddd
16ccc
16ee
=50
4ff
2r
=51
4ff
4gg
8.ff
16bb-
=52
2ee-
4dd
=53
4cc
4ee-
8.dd
16cc
=54
2cc
4r
=55
4b-
4cc
8.ee-
16gg
=56
2a
8.b-
16bb-
=57
8gg
16ff
16ee-
8dd
8ff
8a
8cc
=58
4b-
2r
=59
4ee-
8dd
4.r
=60
8aa-
8r
8gg
4.r
=61
4.ff
8ee-
8dd
8cc
=62
4b-
8a
8cc
8dd
8ee-
=63
4ff
4gg
8.ff
16bb-
=64
2ee-
4dd
=65
12cc
12ee-
12gg
4b-
8.cc
16b-
=66
4b-
4r
16ee-
16dd
16ee-
16a
=67
16b-
16a
16b-
16a
16b-
16b
16cc
16dd
16ee-
16dd
16ee-
16a
=68
16b-
16a
16b-
16a
16b-
16b
16cc
16dd
16ee-
16dd
16ee-
16a
=69
4cc
8b-
4.r
=70
4ee-
8dd
4.r
=71
4aa
8bb-
4.r
==
*-
